X: 4293
T: There's nae luck about the House.   a Reel.
%R: reel, air
B: Niel Gow & Sons "Complete Repository" v.4 p.29 #3
Z: 2021 John Chambers <jc:trillian.mit.edu>
M: C|
L: 1/8
K: D
% - - - - - - - - - -
% Voice 1 formatted for compactness and proofreading.
V: 1 staves=2
(A//B//c/) |\
d>B AF GGGB | d>B AF E3c | d>B AF GABd | AGFE D3 :| D/E/ | F2FD G2GE | F2FD TE3D/E/ |
F2FD G2GB | AGFE D3 d/e/ || ff(fd) gg(ge) | fffd Te3d/e/ | ff(fd) gg(gb) | a>gfe d3 |]
% - - - - - - - - - -
% Voice 2 preserves the book's staff layout.
V: 2 clef=bass middle=d
z |\
d2a2 b2g2 | d2f2 a2A2 | d2=c'2 b2g2 | a2A2 d2D :| z | d2d2 e2c2 | d2D2 A2A,z |
d2=c2 B2G2 | A2A,2 D3z || d'2d'2 e'2c'2 | d'2d2 a2A2 | d'2=c'2 b2g2 | a2A2 d2D |]


